modules/open-iconic/icons/grid-three-up.svg

<svg xmlns="http://www.w3.org/2000/svg" width="8" height="8" viewBox="0 0 8 8">
  <path d="M0 0v2h2v-2h-2zm3 0v2h2v-2h-2zm3 0v2h2v-2h-2zm-6 3v2h2v-2h-2zm3 0v2h2v-2h-2zm3 0v2h2v-2h-2zm-6 3v2h2v-2h-2zm3 0v2h2v-2h-2zm3 0v2h2v-2h-2z" />
</svg>

<svg xmlns="http://www.w3.org/2000/svg" width="8" height="8"><path d="M0 0v2h2V0H0zm3 0v2h2V0H3zm3 0v2h2V0H6zM0 3v2h2V3H0zm3 0v2h2V3H3zm3 0v2h2V3H6zM0 6v2h2V6H0zm3 0v2h2V6H3zm3 0v2h2V6H6z"/></svg>
